X: 54
T:A New War Like Tune of Mr Purcell. HA.053
T:New Warlike Tune of Mr Purcell. HA.053
T:By Moonlight on the Green,aka. HA.053
M:3/4
L:1/4
Q:100
C:in Hand B
S:Henry Atkinson's original MS,Hartburn,N'umberland,1694.
O:England
A:Hartburn,Northumberland
H:1/4
Z:vmp.Chris Partington.Jan.2004
K:C
c|ece|g3-|g2g/f/|e>dc|A2e|a>ga|fdc|!
BGz|zzd|g(g/a/) (g/f/)|e>dc|ffg|a2A/A/|ddd|!
BBd/d/|ggg|eee/d/|cA(d/A/)|(B/c/)A>G|GG||!
d/c/|B(A/G/)d|e>dc|f>ge|f2g|adg|"#"cea|!
f>ed|d2d|g/a/g(g/f/)|e2(e/d/)|cAf|!
d2(d/c/)|BGg/f/|eca/g/|fdg|e>fd|c3|]
